X: 142	% 36
T: Everything Is Pleasant Schottische
S: Viola Ruth "Pioneer Western Folk Tunes" 1948 p.14 #2
R: shottish
Z: 2019 John Chambers <jc:trillian.mit.edu>
M: 4/4
L: 1/8
Q: "Lively"
K: D
V: 1 name="36"
(fg) |:\
a>fb>f a>fe>f | e2[B2G2] [B2G2] z2 |\
[c2E2][c2E2] c>A B>c |[1 e2d2 d2(fg) :|\
[2 e2d2 d2f>a ||\
d'2 d'2 d'>a a>a | (c'>b) (b>^a) b4 |
c'2 c'2 (c'>a) Ma>a | (b>a) (a>^g) a2 (b>c') |\
d'2 d'2 (d'>a) a>a | c'>b b>^a b4 |\
a>d' c'>b a>g f>e | d2 f2 d2 :|
